X: 19356
T: Jack Rowe
R: reel
M: 4/4
K: Gmajor
|:A3F GFED|(3EFG AB c2BA|GBdg egdB|GBAF GFED|
(3EFG AF GFED|(3EFG AB c2BA|GBdB AcBA|GEDE G4:|
|:g3e fedf|efge fedf|eB~B2 efge|fdef gdef|
gbag eage|dBBA BAGF|GBdB AcBA|GEDE G4:|

